src/assets/images/ranker-high-resolution-logo-transparent.svg

<?xml version="1.0" encoding="UTF-8"?>
<svg version="1.1" viewBox="0 0 2000 358" xmlns="http://www.w3.org/2000/svg">
<g transform="translate(-1.2121 .59227)">
<svg width="2e3" height="358" data-background-color="#ffffff" viewBox="0 0 396 71" xmlns="http://www.w3.org/2000/svg" xmlns:xlink="http://www.w3.org/1999/xlink">
<g transform="translate(.24 -.11746)">
<svg width="395.52" height="71.235" viewBox="0 0 395.52 71.23459009163962">
<svg width="395.52" height="71.235" viewBox="0 0 524.6066275728216 94.48356107025535">
<g transform="translate(129.09 10.598)">
<svg width="395.52" height="73.288" viewBox="0 0 395.52000000000004 73.28798035921955">
<svg width="395.52" height="73.288" viewBox="0 0 395.52000000000004 73.28798035921955">
<svg width="395.52" height="73.288" viewBox="0 0 395.52000000000004 73.28798035921955">
<g>
<svg width="395.52" height="73.288" data-palette-color="#b71c1c" viewBox="3.25 -35.01 188.93 35.01">
<path class="wordmark-text-0" d="m17.26-28h-7.01v14.01h7.01q1.44 0 2.71-0.55t2.22-1.5 1.5-2.23q0.55-1.29 0.55-2.73t-0.55-2.72-1.5-2.23-2.22-1.5-2.71-0.55zm-7.01 20.99v7.01h-7v-35.01h14.01q1.93 0 3.71 0.5t3.33 1.42q1.55 0.91 2.84 2.19 1.28 1.29 2.19 2.85 0.92 1.56 1.42 3.34 0.5 1.79 0.5 3.71 0 1.81-0.45 3.52t-1.3 3.25q-0.84 1.53-2.06 2.83-1.22 1.29-2.73 2.24l3.88 9.16h-7.45l-3.05-7.06-7.84 0.05zm32.18-6.98h14.01v-7.01q0-1.44-0.55-2.72t-1.5-2.23-2.23-1.5-2.72-0.55-2.73 0.55q-1.28 0.55-2.23 1.5t-1.5 2.23-0.55 2.72v7.01zm21.02-7.01v21h-7.01v-7.01h-14.01v7.01h-6.98v-21q0-2.9 1.1-5.45 1.09-2.55 2.99-4.46 1.89-1.9 4.44-3t5.46-1.1q2.9 0 5.45 1.1t4.46 3q1.9 1.91 3 4.46t1.1 5.45zm34.08-14.01v35.01h-7.5l-13.5-23.05v23.05h-7v-35.01h7.49l13.5 23.07v-23.07h7.01zm13.5 28v7.01h-7.01v-35.01h7.01v17.51l13.03-17.51h7.96l-11.06 14.77 11.06 20.24h-7.96l-7.69-14.16-5.34 7.15zm48.24 0v7.01h-24v-35.01h24v7.01h-16.99v7h11.49v7.01h-11.49v6.98h16.99zm18.92-20.99h-7.01v14.01h7.01q1.44 0 2.71-0.55t2.22-1.5 1.5-2.23q0.55-1.29 0.55-2.73t-0.55-2.72-1.5-2.23-2.22-1.5-2.71-0.55zm-7.01 20.99v7.01h-7.01v-35.01h14.02q1.92 0 3.71 0.5 1.78 0.5 3.33 1.42 1.55 0.91 2.83 2.19 1.28 1.29 2.2 2.85 0.91 1.56 1.41 3.34 0.51 1.79 0.51 3.71 0 1.81-0.46 3.52-0.45 1.71-1.29 3.25-0.84 1.53-2.06 2.83-1.22 1.29-2.74 2.24l3.88 9.16h-7.44l-3.05-7.06-7.84 0.05z" fill="#b71c1c" data-fill-palette-color="primary"/>
</svg>
</g>
</svg>
</svg>
</svg>
</g>
<svg width="94.484" height="94.484" viewBox="0 0 94.48356107025535 94.48356107025535">
<svg/>
<svg width="94.484" height="94.484" viewBox="0 0 94.48356107025535 94.48356107025535">
<path d="m0 47.242c0-26.091 21.151-47.242 47.242-47.242s47.242 21.151 47.242 47.242-21.151 47.242-47.242 47.242-47.242-21.151-47.242-47.242zm47.242 40.632c22.441 0 40.633-18.192 40.632-40.632 0-22.441-18.192-40.633-40.632-40.633-22.441 0-40.633 18.192-40.633 40.633s18.192 40.633 40.633 40.632z" fill="#ff4136" stroke="transparent" data-fill-palette-color="accent"/>
<g transform="translate(34.8 23.263)">
<svg width="24.884" height="47.957" viewBox="0 0 24.883954038015865 47.95701771694827">
<svg class="icon-cg-0" width="24.884" height="47.957" enable-background="new 0 0 52 52" data-fill-palette-color="accent" version="1.1" viewBox="13.5468721 2 24.9062567 48" xml:space="preserve" xmlns="http://www.w3.org/2000/svg" xmlns:xlink="http://www.w3.org/1999/xlink"><g fill="#ff4136" data-fill-palette-color="accent"><polygon points="20.357 31.64 26 21.796 31.643 31.64 33.561 32.042 38.355 26.833 38.355 2 13.646 2 13.646 26.833 18.438 32.042" data-fill-palette-color="accent"/><polygon points="38.453 35.361 30.196 33.632 26 26.313 21.805 33.632 13.547 35.361 19.211 41.613 18.304 50 26 46.545 33.696 50 32.789 41.613" data-fill-palette-color="accent"/></g></svg>
</svg>
</g>
</svg>
</svg>
</svg>
</svg>
<rect width="395.52" height="71.235" fill="none" visibility="hidden"/>
</g>
</svg>
</g>
</svg>

<svg xmlns="http://www.w3.org/2000/svg" version="1.1" xmlns:xlink="http://www.w3.org/1999/xlink" xmlns:svgjs="http://svgjs.dev/svgjs" width="2000" height="358" viewBox="0 0 2000 358"><g transform="matrix(1,0,0,1,-1.2121212121212466,0.5922656618820668)"><svg viewBox="0 0 396 71" data-background-color="#ffffff" preserveAspectRatio="xMidYMid meet" height="358" width="2000" xmlns="http://www.w3.org/2000/svg" xmlns:xlink="http://www.w3.org/1999/xlink"><g id="tight-bounds" transform="matrix(1,0,0,1,0.2400000000000091,-0.1174605083620861)"><svg viewBox="0 0 395.52 71.23459009163962" height="71.23459009163962" width="395.52"><g><svg viewBox="0 0 524.6066275728216 94.48356107025535" height="71.23459009163962" width="395.52"><g transform="matrix(1,0,0,1,129.08662757282158,10.597790355517901)"><svg viewBox="0 0 395.52000000000004 73.28798035921955" height="73.28798035921955" width="395.52000000000004"><g id="textblocktransform"><svg viewBox="0 0 395.52000000000004 73.28798035921955" height="73.28798035921955" width="395.52000000000004" id="textblock"><g><svg viewBox="0 0 395.52000000000004 73.28798035921955" height="73.28798035921955" width="395.52000000000004"><g transform="matrix(1,0,0,1,0,0)"><svg width="395.52000000000004" viewBox="3.25 -35.01 188.93 35.01" height="73.28798035921955" data-palette-color="#b71c1c"><path d="M17.26-28L10.25-28 10.25-13.99 17.26-13.99Q18.7-13.99 19.97-14.54 21.24-15.09 22.19-16.04 23.14-16.99 23.69-18.27 24.24-19.56 24.24-21L24.24-21Q24.24-22.44 23.69-23.72 23.14-25 22.19-25.95 21.24-26.9 19.97-27.45 18.7-28 17.26-28L17.26-28ZM10.25-7.01L10.25 0 3.25 0 3.25-35.01 17.26-35.01Q19.19-35.01 20.97-34.51 22.75-34.01 24.3-33.09 25.85-32.18 27.14-30.9 28.42-29.61 29.33-28.05 30.25-26.49 30.75-24.71 31.25-22.92 31.25-21L31.25-21Q31.25-19.19 30.8-17.48 30.35-15.77 29.5-14.23 28.66-12.7 27.44-11.4 26.22-10.11 24.71-9.16L24.71-9.16 28.59 0 21.14 0 18.09-7.06 10.25-7.01ZM42.43-13.99L56.44-13.99 56.44-21Q56.44-22.44 55.89-23.72 55.34-25 54.39-25.95 53.44-26.9 52.16-27.45 50.88-28 49.44-28L49.44-28Q48-28 46.71-27.45 45.43-26.9 44.48-25.95 43.53-25 42.98-23.72 42.43-22.44 42.43-21L42.43-21 42.43-13.99ZM63.45-21L63.45 0 56.44 0 56.44-7.01 42.43-7.01 42.43 0 35.45 0 35.45-21Q35.45-23.9 36.55-26.45 37.64-29 39.54-30.91 41.43-32.81 43.98-33.91 46.53-35.01 49.44-35.01L49.44-35.01Q52.34-35.01 54.89-33.91 57.44-32.81 59.35-30.91 61.25-29 62.35-26.45 63.45-23.9 63.45-21L63.45-21ZM97.53-35.01L97.53 0 90.03 0 76.53-23.05 76.53 0 69.53 0 69.53-35.01 77.02-35.01 90.52-11.94 90.52-35.01 97.53-35.01ZM111.03-7.01L111.03 0 104.02 0 104.02-35.01 111.03-35.01 111.03-17.5 124.06-35.01 132.02-35.01 120.96-20.24 132.02 0 124.06 0 116.37-14.16 111.03-7.01ZM159.27-7.01L159.27 0 135.27 0 135.27-35.01 159.27-35.01 159.27-28 142.28-28 142.28-21 153.77-21 153.77-13.99 142.28-13.99 142.28-7.01 159.27-7.01ZM178.19-28L171.18-28 171.18-13.99 178.19-13.99Q179.63-13.99 180.9-14.54 182.17-15.09 183.12-16.04 184.07-16.99 184.62-18.27 185.17-19.56 185.17-21L185.17-21Q185.17-22.44 184.62-23.72 184.07-25 183.12-25.95 182.17-26.9 180.9-27.45 179.63-28 178.19-28L178.19-28ZM171.18-7.01L171.18 0 164.17 0 164.17-35.01 178.19-35.01Q180.11-35.01 181.9-34.51 183.68-34.01 185.23-33.09 186.78-32.18 188.06-30.9 189.34-29.61 190.26-28.05 191.17-26.49 191.67-24.71 192.18-22.92 192.18-21L192.18-21Q192.18-19.19 191.72-17.48 191.27-15.77 190.43-14.23 189.59-12.7 188.37-11.4 187.15-10.11 185.63-9.16L185.63-9.16 189.51 0 182.07 0 179.02-7.06 171.18-7.01Z" opacity="1" transform="matrix(1,0,0,1,0,0)" fill="#b71c1c" class="wordmark-text-0" data-fill-palette-color="primary" id="text-0"></path></svg></g></svg></g></svg></g></svg></g><g><svg viewBox="0 0 94.48356107025535 94.48356107025535" height="94.48356107025535" width="94.48356107025535"><g><svg></svg></g><g id="icon-0"><svg viewBox="0 0 94.48356107025535 94.48356107025535" height="94.48356107025535" width="94.48356107025535"><g><path d="M0 47.242c0-26.091 21.151-47.242 47.242-47.242 26.091 0 47.242 21.151 47.242 47.242 0 26.091-21.151 47.242-47.242 47.242-26.091 0-47.242-21.151-47.242-47.242zM47.242 87.874c22.441 0 40.633-18.192 40.632-40.632 0-22.441-18.192-40.633-40.632-40.633-22.441 0-40.633 18.192-40.633 40.633 0 22.441 18.192 40.633 40.633 40.632z" data-fill-palette-color="accent" fill="#ff4136" stroke="transparent"></path></g><g transform="matrix(1,0,0,1,34.79980351611974,23.263271676653538)"><svg viewBox="0 0 24.883954038015865 47.95701771694827" height="47.95701771694827" width="24.883954038015865"><g><svg xmlns="http://www.w3.org/2000/svg" xmlns:xlink="http://www.w3.org/1999/xlink" version="1.1" x="0" y="0" viewBox="13.5468721 2 24.9062567 48" enable-background="new 0 0 52 52" xml:space="preserve" height="47.95701771694827" width="24.883954038015865" class="icon-cg-0" data-fill-palette-color="accent" id="cg-0"><g fill="#ff4136" data-fill-palette-color="accent"><polygon points="20.3570862,31.6401711 26.0002747,21.7961273 31.6434612,31.6401711 33.5612679,32.0415421 38.3549614,26.8327675    38.3549614,2 13.645587,2 13.645587,26.8327675 18.4380455,32.0418167  " fill="#ff4136" data-fill-palette-color="accent"></polygon><polygon points="38.4531288,35.3606186 30.1956463,33.6320152 26.0002747,26.31287 21.8049011,33.6320152 13.5468721,35.3606186    19.2114487,41.612545 18.3038216,50 26.0002747,46.5449867 33.6961784,50 32.7885513,41.612545  " fill="#ff4136" data-fill-palette-color="accent"></polygon></g></svg></g></svg></g></svg></g></svg></g></svg></g><defs></defs></svg><rect width="395.52" height="71.23459009163962" fill="none" stroke="none" visibility="hidden"></rect></g></svg></g></svg>
